X:1
T:Indianola, 76.76 D
T:Indianola, 76.76 D
T:James McGranahan, 1879
T:Public Domain Courtesy of the Cyber Hymnal™
C:James McGranahan, 1879
Z:Public Domain
Z:Courtesy of the Cyber Hymnal™
%%score ( 1 2 ) ( 3 4 )
L:1/8
Q:1/4=108
M:3/4
K:C
V:1 treble 
V:2 treble 
V:3 bass 
V:4 bass 
V:1
 (CE) | [EG]2 [EG]2 [^DA]2 | [EG]2 [EG]2 [Gc]2 | [Ac]2 [GB]2 [FA]2 | ([FA]2 [EG]2) (C[CE]) | %5
 [EG]2 [EG]2 [^DA]2 | [EG]2 [EG]2 c2 | [FB]2 [EG]2 [FB]2 | [Ec]4 [Ec]>[Ec] | [Fc]2 [FB]2 [FA]2 | %10
 [FA]2 [EG]2 [EG]2 | [EG]2 [DF]2 [FA]2 | ([FA]2 [EG]2) [Ge]>[Ge] | [Ge]2 [Gd]2 [_Bc]2 | %14
 [Ac]2 [GB]2 [FA][FA] | [EG]2 [Ec]2 B2 | [Ec]4 |] %17
V:2
 C2 | x6 | x6 | x6 | x4 C x | x6 | x4 (EG) | x6 | x6 | x6 | x6 | x6 | x6 | x6 | x6 | x4 (DF) | %16
 x4 |] %17
V:3
 (E,G,) | [C,C]2 [C,G,]2 [C,^F,]2 | [C,G,]2 [C,C]2 [E,C]2 | [F,C]2 [F,C]2 [F,C]2 | %4
 [C,C]4 ([C,E,][C,G,]) | [C,C]2 [C,G,]2 [C,^F,]2 | [C,G,]2 [C,C]2 G,2 | G,2 G,2 G,2 | %8
 [C,G,]4 [C,G,]>[C,G,] | [F,A,]2 [F,B,]2 [F,C]2 | [C,C]2 [C,C]2 [C,C]2 | %11
 [G,,C]2 [G,,B,]2 [G,,B,]2 | [C,C]4 [C,C]>[C,C] | [C,C]2 [D,B,]2 [E,C]2 | %14
 [F,C]2 [F,C]2 [F,C][F,C] | [G,C]2 G,2 G,2 | [C,G,]4 |] %17
V:4
 C,2 | x6 | x6 | x6 | x6 | x6 | x4 (C,E,) | G,2 G,2 G,2 | x6 | x6 | x6 | x6 | x6 | x6 | x6 | %15
 x2 G,2 G,2 | x4 |] %17

